X: 7
T:Come hast to the Wedding. JaW.007
T:Haste To The Wedding,aka. JaW.007
T:Rural Felicity,aka. JaW.007
M:6/8
L:1/8
Q:120
C:Rural Felicity,aka.  "1834"
S:James Winder Ms, Lancashire, 1835-41
R:Jig
O:England
A:Wyresdale,Lancashire
H:1/8
Z:vmp.Chris Partington, Aug 2004
K:D
A|AFA Aaf|ede fdB|AFA BdF|EEE E2 A|!
AFG Aaf|ede fdB|AFA faf|ddd d2:|!
|:a|(af)a (af)a|(bg)b (bg)b|afa agf|eee e3|!
a3 f3|ede fdB|AFA faf|ddd d3:|]
